appleappstore.svg

<svg viewBox="0 0 24 24" xmlns="http://www.w3.org/2000/svg"><defs><linearGradient gradientTransform="matrix(0.0412305 0 0 0.0412305 -4.39491 -4.26772)" gradientUnits="userSpaceOnUse" id="LinearGradient" x1="106.594" x2="688.688" y1="394.556" y2="394.556"><stop offset="0" stop-color="#18bffb"/><stop offset="1" stop-color="#2072f3"/></linearGradient></defs><path d="M10.104 1.40276C9.816 1.38234 9.51909 1.44527 9.24851 1.59989C8.52698 2.02044 8.28346 2.93086 8.69576 3.65239L10.2252 6.30789L5.32775 14.7975L1.50105 14.7975C0.668191 14.7975 0 15.4657 0 16.2986C0 17.1314 0.668191 17.7983 1.50105 17.7983L15.1483 17.7983C15.8039 16.5696 14.9592 14.7975 13.4502 14.7975L8.79498 14.7975L15.2308 3.65626C15.6431 2.93473 15.3996 2.01606 14.678 1.60375C13.9565 1.19145 13.0378 1.43497 12.6255 2.1565L11.9568 3.31095L11.301 2.15135C11.0382 1.70039 10.5841 1.43678 10.104 1.40276ZM14.1717 7.15698C13.2852 7.89501 12.3859 10.0725 13.6434 12.2412C14.8721 14.3728 16.7233 17.5723 19.1889 21.8479C19.6095 22.5694 20.5212 22.813 21.2427 22.4007C21.9642 21.9801 22.2065 21.0684 21.7942 20.3469L20.3305 17.8073L22.5002 17.8073C23.3331 17.8073 24 17.1391 24 16.3063C24 15.4734 23.3331 14.8052 22.5002 14.8052L18.5949 14.8052C16.6282 11.3996 15.1571 8.84743 14.1717 7.15698ZM4.05862 18.3343C3.7836 18.3453 3.49454 18.3977 3.1915 18.4915L2.1195 20.3469C1.7072 21.0684 1.95072 21.9884 2.67225 22.4007C3.39378 22.813 4.31245 22.5694 4.72475 21.8479L6.16782 19.3445C5.58338 18.6394 4.88369 18.3013 4.05862 18.3343Z" fill="url(#LinearGradient)"/></svg>

<svg viewBox="0 0 24 24" xmlns="http://www.w3.org/2000/svg"><defs><linearGradient gradientTransform="translate(-4.395 -4.268) scale(.04123)" gradientUnits="userSpaceOnUse" id="a" x1="106.594" x2="688.688" y1="394.556" y2="394.556"><stop offset="0" stop-color="#18bffb"/><stop offset="1" stop-color="#2072f3"/></linearGradient></defs><path d="M10.104 1.403a1.505 1.505 0 0 0-1.408 2.25l1.53 2.655-4.898 8.49H1.5c-.833 0-1.501.668-1.501 1.5 0 .833.668 1.5 1.501 1.5h13.647c.656-1.228-.189-3-1.698-3H8.795l6.436-11.142a1.502 1.502 0 1 0-2.605-1.5l-.67 1.155-.655-1.16a1.505 1.505 0 0 0-1.197-.748Zm4.068 5.754c-.887.738-1.786 2.915-.529 5.084 1.23 2.132 3.08 5.331 5.546 9.607.42.721 1.332.965 2.054.553.721-.42.963-1.333.551-2.054l-1.463-2.54h2.17c.832 0 1.499-.668 1.499-1.5 0-.834-.667-1.502-1.5-1.502h-3.905c-1.967-3.405-3.438-5.958-4.423-7.648ZM4.059 18.334a3.395 3.395 0 0 0-.868.157L2.12 20.348a1.503 1.503 0 1 0 2.605 1.5l1.443-2.503c-.585-.705-1.284-1.043-2.11-1.01Z" fill="url(#a)"/></svg>
